svg/calendar/room-setup.svg

<svg width="16" height="16" viewBox="0 0 16 16" fill="none" xmlns="http://www.w3.org/2000/svg">
<path d="M14 0H2C1.46957 0 0.960859 0.210714 0.585786 0.585786C0.210714 0.960859 0 1.46957 0 2V14C0 14.5304 0.210714 15.0391 0.585786 15.4142C0.960859 15.7893 1.46957 16 2 16H14C14.5304 16 15.0391 15.7893 15.4142 15.4142C15.7893 15.0391 16 14.5304 16 14V2C16 1.46957 15.7893 0.960859 15.4142 0.585786C15.0391 0.210714 14.5304 0 14 0ZM2 14.5C1.86739 14.5 1.74021 14.4473 1.64645 14.3536C1.55268 14.2598 1.5 14.1326 1.5 14V2C1.5 1.86739 1.55268 1.74021 1.64645 1.64645C1.74021 1.55268 1.86739 1.5 2 1.5H14C14.1326 1.5 14.2598 1.55268 14.3536 1.64645C14.4473 1.74021 14.5 1.86739 14.5 2V14C14.5 14.1326 14.4473 14.2598 14.3536 14.3536C14.2598 14.4473 14.1326 14.5 14 14.5H2Z" fill="black"/>
<path d="M8.749 3H7.249L6.812 4.234C6.59303 4.3033 6.38055 4.39163 6.177 4.498L4.994 3.935L3.935 4.994L4.5 6.177C4.39363 6.38055 4.3053 6.59303 4.236 6.812L3 7.251V8.751L4.234 9.19C4.3033 9.40897 4.39163 9.62144 4.498 9.825L3.935 11.008L4.994 12.067L6.177 11.5C6.38055 11.6064 6.59303 11.6947 6.812 11.764L7.251 13H8.751L9.19 11.766C9.40897 11.6967 9.62144 11.6084 9.825 11.502L11.008 12.065L12.067 11.006L11.5 9.823C11.6064 9.61945 11.6947 9.40697 11.764 9.188L13 8.749V7.249L11.766 6.81C11.6967 6.59103 11.6084 6.37855 11.502 6.175L12.065 4.992L11.006 3.935L9.823 4.5C9.61945 4.39363 9.40697 4.3053 9.188 4.236L8.749 3ZM8 10.368C7.53165 10.368 7.07383 10.2291 6.68441 9.96892C6.29499 9.70872 5.99148 9.33889 5.81225 8.90619C5.63303 8.4735 5.58613 7.99737 5.6775 7.53803C5.76887 7.07868 5.9944 6.65674 6.32557 6.32557C6.65674 5.9944 7.07868 5.76887 7.53803 5.6775C7.99737 5.58613 8.4735 5.63303 8.90619 5.81225C9.33889 5.99148 9.70872 6.29499 9.96892 6.68441C10.2291 7.07383 10.368 7.53165 10.368 8C10.368 8.31097 10.3068 8.6189 10.1877 8.90619C10.0687 9.19349 9.89432 9.45454 9.67443 9.67443C9.45454 9.89432 9.19349 10.0687 8.90619 10.1877C8.6189 10.3068 8.31097 10.368 8 10.368Z" fill="black"/>
</svg>

<svg xmlns="http://www.w3.org/2000/svg" viewBox="0 0 16 16"><path d="M14,0H2A2,2,0,0,0,0,2V14a2,2,0,0,0,2,2H14a2,2,0,0,0,2-2V2a2,2,0,0,0-2-2ZM2,14.5a.5.5,0,0,1-.5-.5V2A.5.5,0,0,1,2,1.5H14a.5.5,0,0,1,.5.5V14a.5.5,0,0,1-.5.5Z"/><path d="M8.749,3h-1.5L6.812,4.234a3.934,3.934,0,0,0-.635.264L4.994,3.935,3.935,4.994,4.5,6.177a3.934,3.934,0,0,0-.264.635L3,7.251v1.5l1.234.439a3.934,3.934,0,0,0,.264.635l-.563,1.183,1.059,1.059L6.177,11.5a3.934,3.934,0,0,0,.635.264L7.251,13h1.5l.439-1.234a3.934,3.934,0,0,0,.635-.264l1.183.563,1.059-1.059L11.5,9.823a3.934,3.934,0,0,0,.264-.635L13,8.749v-1.5l-1.234-.439a3.934,3.934,0,0,0-.264-.635l.563-1.183L11.006,3.935,9.823,4.5a3.934,3.934,0,0,0-.635-.264L8.749,3ZM8,10.368A2.368,2.368,0,1,1,10.368,8,2.368,2.368,0,0,1,8,10.368Z"/></svg>
